X:1
T:Title
%%score { 1 | 2 }
L:1/8
M:6/8
K:Bb
V:1 treble nm="Grand Piano"
V:2 bass 
V:1
 z3 z2[Q:1/4=81] [DF] | [Fd]>[Ec][DB] [DF][DG][DB] | B>A_A =A2 F | e>dc GAc | %4
 [Ec]>[DB][Ec] [Fd]2 [DF] | [Fd]>[Ec][DB] [DF][DB][FA] |[M:7/8] G>^FG [Ge]3 [Gd]/[Gc]/ | %7
[M:3/4] B<F dc G[CEA] |[M:5/8] [DB]-[DB]- [DB]3 |[M:1/8] [DB] |[M:3/4] Ac- c/c/ c2 c | %11
 [DB][Fd]- [Fd]/[Fd]/ [Fd]2 [Fd] | [=Ed]>[Ec] [EB][EB] [EA][EB] | %13
[M:7/8] [=Ec][EG][Ec] [_Ec]3 [EF] |[M:3/4] [Fd]>[Ec] [DB][DF] [DB][FA] | %15
[M:7/8] G>^FG [Ge]3 [Gd]/[Gc]/ |[M:3/4] B<F dc G[CEA] | %17
[M:13/8] [B,DB]-[B,DB]- [B,DB]3 z z z z z z z2 |] %18
V:2
 z3 z2 [B,,B,] | [B,,B,]>[B,,B,][B,,B,] [B,,B,][B,,B,][B,,B,] | %2
 [F,CE]>[F,CE][F,=B,E] [F,CE]2 [F,A,] | [F,A,F]>[F,B,F][F,A,E] [F,A,E][F,CE][F,A,E] | %4
 [B,,B,]>[B,,B,][B,,B,] [B,,B,]2 [B,,B,] | [B,,B,]>[B,,B,][B,,B,] [B,,B,][B,,B,][D,B,] | %6
[M:7/8] [E,B,E]>[E,A,E][E,B,E] [C,C]3 [D,=B,]/[E,C]/ | %7
[M:3/4] [F,DF]<[F,B,D] [F,B,F][F,A,E] [F,A,E]F,, |[M:5/8] [B,,B,]-[B,,B,]- [B,,B,]3 | %9
[M:1/8] [B,,B,] |[M:3/4] [F,CE][F,A,E]- [F,A,E]/[F,A,E]/ [F,A,E]2 [F,,A,E] | %11
 [B,,B,][B,,B,]- [B,,B,]/[B,,B,]/ [B,,B,]2 [B,,B,] | [C,G,]>[C,G,] [C,G,][C,G,] [C,C][C,G,] | %13
[M:7/8] [C,G,][C,C][C,G,] [F,A,]3 [F,A,] |[M:3/4] [B,,B,]>[B,,B,] [B,,B,][B,,B,] [B,,B,][D,B,] | %15
[M:7/8] [E,B,E]>[E,A,E][E,B,E] [C,C]3 [D,=B,]/[E,C]/ | %16
[M:3/4] [F,DF]<[F,B,D] [F,B,F][F,A,E] [F,A,E]F,, |[M:13/8] B,,-B,,- B,,3 z z z z z z z2 |] %18

